X: 9
T: The Trip To Pakistan
R: reel
M: 4/4
L: 1/8
K: Emin
|: EGBE G3 B | A3 G FGAF | EGBE G3 B | AFDE FEED :|
|: EGBE c3 A | B3 B BAGF|EGBE c3 A |BAGB ~A3G :|
|: FGBF GBFG | EFGE FGEF | DFAD FADA | AGFG ~DE3 :|


Tune 112	Setting 112

